X: 6
T: The Ballydesmond
R: polka
M: 2/4
L: 1/8
K: Edor
|: EF |G2 F2 | E2 D>E | F/G/A BA | d2 BA |
Be d/e/d/B/ | AF DE/F/ | GB AF | E2 :|
|: FA |Be ed/B/ | Ad dA | Be ef | d>c dB |
Be d/e/d/B/ | AF DE/F/ | FB AF | E2 :|


Tune 239	Setting 239

